X:1
T: Caravat and Shanavest
C:
R:Reel
Q: 232
K:Dm
M:4/4
L:1/8
|:FG|AB GA FG A=B|c=B cd f2 ef|df ed cA GE|DF ED CD FG|
AB GA FG A=B|c=B cd f2 ef|df ed cA GE|D2 D2 D2:|
|:FG|Ad de f2 ed|dc AA A2 AG|Ad de f2 ed|d^c ed d=c AG|
Ad d^c de fg|fd cA cd ef|df ed cA GE|D2 D2 D2:|
